docs/public/amplify-logo.svg

<svg height="94" viewBox="0 0 126 94" width="126" xmlns="http://www.w3.org/2000/svg" xmlns:xlink="http://www.w3.org/1999/xlink"><linearGradient id="a" x1="100%" x2="0%" y1="22.171832%" y2="77.828168%"><stop offset="0" stop-color="#f90"/><stop offset="1" stop-color="#ffc300"/></linearGradient><path d="m27.4193646 78h35.490015l9.0906204 16h-.256108-71.743892l25.2808604-43.807863 10.5943221-18.3448082 9.0958278 15.7610959zm13.236047-54.4487507 8.733341-15.13271231 49.4257134 85.58120551h-17.5035781zm13.5942234-23.5512493h17.4802754l54.2700896 94h-17.502284z" fill="url(#a)"/></svg>

<?xml version="1.0" encoding="UTF-8"?>
<svg width="126px" height="94px" viewBox="0 0 126 94" version="1.1" xmlns="http://www.w3.org/2000/svg" xmlns:xlink="http://www.w3.org/1999/xlink">
    <!-- Generator: Sketch 58 (84663) - https://sketch.com -->
    <title>Fill-1</title>
    <desc>Created with Sketch.</desc>
    <defs>
        <linearGradient x1="100%" y1="22.1718317%" x2="0%" y2="77.8281683%" id="linearGradient-1">
            <stop stop-color="#FF9900" offset="0%"></stop>
            <stop stop-color="#FFC300" offset="100%"></stop>
        </linearGradient>
    </defs>
    <g id="Page-1" stroke="none" stroke-width="1" fill="none" fill-rule="evenodd">
        <path d="M27.4193646,78 L62.9093796,78 L72,94 L71.743892,94 L0,94 L25.2808604,50.192137 L35.8751825,31.8473288 L44.9710103,47.6084247 L27.4193646,78 Z M40.6554116,23.5512493 L49.3887526,8.41853699 L98.814466,93.9997425 L81.3108879,93.9997425 L40.6554116,23.5512493 Z M54.249635,0 L71.7299104,0 L126,94 L108.497716,94 L54.249635,0 Z" id="Fill-1" fill="url(#linearGradient-1)" fill-rule="nonzero"></path>
    </g>
</svg>
